X: 1
T:Miss McCloud's -- Reel
M:2/4
L:1/16
R:reel
B:Ryan's Mammoth Collection
N:223
Z:Contributed by Ray Davies,  ray:davies99.freeserve.co.uk
K:G
u{c}(BA)|\
.G2.g2 edeg | B2{c}(BA) BcBA | .G2.g2 edeg | A2{B}(AG) AcBA |
.G2.g2 edeg | B2{c}(BA) Bc.d2 | u(e3.f) edef | gedB A2 :|
|:u{c}(BA)|\
GABc dBGA | B2{c}(BA) BcBA | GABc dBGB | A2{B}(AG) AcBA |
GABc dBGA | B2{c}(BA) Bc.d2 | u(e3.f) edef | gedB A2 :|
